!!!OTL: Es waren drei Schelmen
!!!ARE: Europa, Mitteleuropa, Deutschland
!!!SCT: L0057
!!!YEM: Copyright 1995, estate of Helmut Schaffrath.
**kern
*ICvox
*Ivox
*M4/4
*k[f#]
*G:
{4b
=1
4e
8f#
8g
4a
8g
8f#
=2
4g
4a
2b
=3
4r}
{8g
8a
4b
8a
8g
=4
4f#
4e
4r}
{4g
=5
4a
8a
8b
8dd
8cc
8b
8a
=6
4b
4g
4g
4g
=7
4a
4b
4g}
==
!!!AGN: Lied
!! Aus dem Siebengebirge vor 1860
!!!ONB: ESAC (Essen Associative Code) Database: ERK5
!!!AMT: simple quadruple
!!!AIN: vox
!!!EED: Helmut Schaffrath
!!!EEV: 1.0
*-
